FlatUX/src/svg/VTech - 3D Gamate-content.svg

<svg enable-background="new 0 0 256 256" viewBox="0 0 256 256" xmlns="http://www.w3.org/2000/svg"><path d="m92 44h72v24h-72z" fill="#2b3e51"/><path d="m212 56h-168l-32 20v136h232v-136z" fill="#35495f"/><path d="m32 136h88v60h-88z" fill="#2b3e51"/><path d="m136 136h88v60h-88z" fill="#2b3e51"/><path d="m76 64h104v48h-104z" fill="#1b80bb"/><g fill="#6c7a88"><circle cx="56" cy="64" r="4"/><circle cx="44" cy="120" r="4"/><circle cx="200" cy="64" r="4"/><circle cx="212" cy="120" r="4"/></g><path d="m44 56v52h-32v4h36v-56z" fill="#2b3e51"/><path d="m212 56v52h32v4h-36v-56z" fill="#2b3e51"/></svg>

<svg xmlns="http://www.w3.org/2000/svg" viewBox="0 0 256 256"><path fill="#2b3e51" d="M92 44h72v24H92z"/><path fill="#35495f" d="M212 56H44L12 76v136h232V76z"/><path fill="#2b3e51" d="M32 136h88v60H32zm104 0h88v60h-88z"/><path fill="#1b80bb" d="M76 64h104v48H76z"/><g fill="#6c7a88"><circle cx="56" cy="64" r="4"/><circle cx="44" cy="120" r="4"/><circle cx="200" cy="64" r="4"/><circle cx="212" cy="120" r="4"/></g><path fill="#2b3e51" d="M44 56v52H12v4h36V56zm168 0v52h32v4h-36V56z"/></svg>
